icons/aero-filled.svg

<svg width="256" height="256" viewBox="0 0 256 256" fill="none" xmlns="http://www.w3.org/2000/svg">
<path d="M196 0H60C26.8629 0 0 26.8629 0 60V196C0 229.137 26.8629 256 60 256H196C229.137 256 256 229.137 256 196V60C256 26.8629 229.137 0 196 0Z" fill="#013301"/>
<path d="M116.71 155.9H79.5096L71.9096 179.5C71.8246 179.928 71.5826 180.309 71.2311 180.568C70.8795 180.828 70.4438 180.946 70.0096 180.9H51.2096C50.1096 180.9 49.8096 180.3 50.1096 179.1L82.3096 86.7C82.6096 85.7 82.9095 84.8 83.3096 83.6C83.712 81.4568 83.9129 79.2806 83.9095 77.1C83.8796 76.8496 83.9454 76.597 84.0937 76.393C84.2421 76.1891 84.4621 76.0487 84.7096 76H110.61C111.41 76 111.81 76.3 111.91 76.8L148.41 179.3C148.71 180.4 148.41 180.9 147.41 180.9H126.51C126.156 180.934 125.802 180.842 125.509 180.641C125.217 180.44 125.004 180.142 124.91 179.8L116.71 155.9ZM85.3096 136H110.71C110.11 133.9 109.31 131.4 108.41 128.8C107.51 126.2 106.61 123.2 105.71 120.2C104.81 117.2 103.81 114.1 102.81 111C101.81 107.9 100.91 105 100.11 102.1C99.3096 99.2 98.6096 96.7 97.9095 94.3H97.7096C96.8108 98.6584 95.6758 102.965 94.3096 107.2C92.8096 112 91.3096 117 89.7096 122C88.3096 127.1 86.8096 131.8 85.3096 136Z" fill="#33FF66"/>
<path d="M159.11 100.9H176.61C177.084 100.911 177.542 101.072 177.919 101.36C178.296 101.647 178.573 102.046 178.71 102.5C179.081 103.331 179.349 104.204 179.51 105.1C179.71 106.1 179.91 107.2 180.01 108.2C180.11 109.2 180.21 110.5 180.21 111.8C183.212 108.295 186.841 105.378 190.91 103.2C195.263 100.728 200.205 99.4843 205.21 99.5999C205.374 99.5776 205.542 99.5885 205.702 99.6321C205.862 99.6757 206.012 99.751 206.142 99.8536C206.273 99.9562 206.382 100.084 206.462 100.229C206.542 100.375 206.592 100.535 206.61 100.7V120.6C206.61 121.4 206.11 121.7 205.01 121.7C201.66 121.484 198.297 121.72 195.01 122.4C192.121 122.996 189.305 123.901 186.61 125.1C184.31 126.2 181.81 127.4 180.61 128.8V179.5C180.61 180.5 180.21 180.9 179.31 180.9H160.51C160.325 180.931 160.136 180.924 159.955 180.88C159.773 180.836 159.602 180.755 159.452 180.643C159.303 180.531 159.177 180.389 159.084 180.227C158.991 180.065 158.931 179.886 158.91 179.7V124.3C158.91 121.9 158.91 119.4 158.81 116.8C158.71 114.2 158.71 111.6 158.61 109C158.51 106.7 158.31 104.3 158.01 102C157.983 101.882 157.98 101.759 158.001 101.64C158.022 101.521 158.066 101.407 158.131 101.304C158.196 101.202 158.281 101.114 158.38 101.044C158.479 100.975 158.591 100.926 158.71 100.9H159.11Z" fill="#33FF66"/>
</svg>

<svg xmlns="http://www.w3.org/2000/svg" width="256" height="256" fill="none"><path fill="#013301" d="M196 0H60C26.863 0 0 26.863 0 60v136c0 33.137 26.863 60 60 60h136c33.137 0 60-26.863 60-60V60c0-33.137-26.863-60-60-60"/><path fill="#3F6" d="M116.71 155.9h-37.2l-7.6 23.6a1.75 1.75 0 0 1-1.9 1.4h-18.8c-1.1 0-1.4-.6-1.1-1.8l32.2-92.4c.3-1 .6-1.9 1-3.1a35 35 0 0 0 .6-6.5 1 1 0 0 1 .8-1.1h25.9c.8 0 1.2.3 1.3.8l36.5 102.5c.3 1.1 0 1.6-1 1.6h-20.9a1.51 1.51 0 0 1-1.6-1.1zM85.31 136h25.4c-.6-2.1-1.4-4.6-2.3-7.2s-1.8-5.6-2.7-8.6-1.9-6.1-2.9-9.2-1.9-6-2.7-8.9-1.5-5.4-2.2-7.8h-.2a123 123 0 0 1-3.4 12.9c-1.5 4.8-3 9.8-4.6 14.8-1.4 5.1-2.9 9.8-4.4 14m73.8-35.1h17.5a2.25 2.25 0 0 1 2.1 1.6c.371.831.639 1.704.8 2.6.2 1 .4 2.1.5 3.1s.2 2.3.2 3.6a37.2 37.2 0 0 1 10.7-8.6 27.66 27.66 0 0 1 14.3-3.6 1.24 1.24 0 0 1 1.4 1.1v19.9c0 .8-.5 1.1-1.6 1.1-3.35-.216-6.713.02-10 .7a41 41 0 0 0-8.4 2.7c-2.3 1.1-4.8 2.3-6 3.7v50.7c0 1-.4 1.4-1.3 1.4h-18.8a1.383 1.383 0 0 1-1.6-1.2v-55.4c0-2.4 0-4.9-.1-7.5s-.1-5.2-.2-7.8c-.1-2.3-.3-4.7-.6-7a.9.9 0 0 1 .121-.696.92.92 0 0 1 .579-.404z"/></svg>
